icons/svg/tumblr-reblog.svg

﻿<?xml version="1.0" encoding="utf-8"?>
<!DOCTYPE svg PUBLIC "-//W3C//DTD SVG 1.1//EN" "http://www.w3.org/Graphics/SVG/1.1/DTD/svg11.dtd">
<svg xmlns="http://www.w3.org/2000/svg" xmlns:xlink="http://www.w3.org/1999/xlink" version="1.1" baseProfile="full" width="24" height="24" viewBox="0 0 24.00 24.00" enable-background="new 0 0 24.00 24.00" xml:space="preserve">
	<path fill="#000000" fill-opacity="1" stroke-linejoin="round" d="M 3.74999,17L 7.99999,12.75L 8,16L 18,16L 18,11.5L 20,9.5L 20,16C 20,17.1046 19.1046,18 18,18L 8,18L 7.99999,21.25L 3.74999,17 Z M 20.25,7L 16,11.25L 16,8L 6,7.99998L 6,12.5L 4,14.5L 3.99999,7.99998C 3.99999,6.89541 4.89543,5.99998 6,5.99998L 16,6L 16,2.75002L 20.25,7 Z "/>
</svg>

<svg xmlns="http://www.w3.org/2000/svg" version="1.1" baseProfile="full" width="24" height="24" viewBox="0 0 24.00 24.00" xml:space="preserve"><path fill="#000" fill-opacity="1" stroke-linejoin="round" d="M3.75 17L8 12.75V16h10v-4.5l2-2V16c0 1.105-.895 2-2 2H8v3.25L3.75 17zm16.5-10L16 11.25V8H6v4.5l-2 2V8c0-1.105.895-2 2-2h10V2.75L20.25 7z"/></svg>
